X:1
T:Katt un Mus
C:traditionell
R:
A:Arendsee, Mecklenburg
F:http://simonwascher.info/
Z:abc transcription Simon Wascher
M:2/4
L:1/8
K:G
[B4D4] |\
{c}BABc | d2 dB | G4 | A2 c2 |\
(ed)cA | G2 zx :|
d2 b2 | b2 ag | fgaf | g2 d2 |\
d2 b2 | b2 ag | fgaf | g2 zx |
W:aus Simon Waschers TradArchiv

